X: 37022
T: Signal Transduction
R: reel
M: 4/4
K: Edorian
EFGE FA A2|BABc dAFD|EFGE FAdf|edBA GAFG|
EFGE FA A2|BABc d2 (3Bcd|egfe edBG|A2 BA AGFD:|
gfeg fefg|edBA Beef|ge e2 fdAf|eBGe dAFd|
efge fefg|edBc d2 (3 Bcd|egfe edBG|A2 BA AGFD:|

